; G-Code generated by Simplify3D(R) Version 4.1.2
; Nov 16, 2019 at 3:00:46 PM
; Settings Summary
;   processName,Process1
;   applyToModels,Feux03
;   profileName,401_35p Tevo Tornado (experimental)
;   profileVersion,2019-11-15 20:21:15
;   baseProfile,Creality CR-10(2)
;   printMaterial,PLA
;   printQuality,Medium
;   printExtruders,
;   extruderName,Primary Extruder
;   extruderToolheadNumber,0
;   extruderDiameter,0.4
;   extruderAutoWidth,0
;   extruderWidth,0.35
;   extrusionMultiplier,0.95
;   extruderUseRetract,1
;   extruderRetractionDistance,3.8
;   extruderExtraRestartDistance,0
;   extruderRetractionZLift,0.3
;   extruderRetractionSpeed,3000
;   extruderUseCoasting,0
;   extruderCoastingDistance,0.2
;   extruderUseWipe,0
;   extruderWipeDistance,4
;   primaryExtruder,0
;   layerHeight,0.15
;   topSolidLayers,4
;   bottomSolidLayers,3
;   perimeterOutlines,3
;   printPerimetersInsideOut,0
;   startPointOption,1
;   startPointOriginX,0
;   startPointOriginY,300
;   sequentialIslands,0
;   spiralVaseMode,0
;   firstLayerHeightPercentage,120
;   firstLayerWidthPercentage,100
;   firstLayerUnderspeed,0.5
;   useRaft,0
;   raftExtruder,0
;   raftTopLayers,3
;   raftBaseLayers,2
;   raftOffset,3
;   raftSeparationDistance,0.14
;   raftTopInfill,100
;   aboveRaftSpeedMultiplier,0.3
;   useSkirt,1
;   skirtExtruder,0
;   skirtLayers,1
;   skirtOutlines,3
;   skirtOffset,2
;   usePrimePillar,0
;   primePillarExtruder,999
;   primePillarWidth,12
;   primePillarLocation,7
;   primePillarSpeedMultiplier,1
;   useOozeShield,0
;   oozeShieldExtruder,999
;   oozeShieldOffset,2
;   oozeShieldOutlines,1
;   oozeShieldSidewallShape,1
;   oozeShieldSidewallAngle,30
;   oozeShieldSpeedMultiplier,1
;   infillExtruder,0
;   internalInfillPattern,Grid
;   externalInfillPattern,Concentric
;   infillPercentage,35
;   outlineOverlapPercentage,15
;   infillExtrusionWidthPercentage,100
;   minInfillLength,5
;   infillLayerInterval,1
;   internalInfillAngles,45,-45
;   overlapInternalInfillAngles,1
;   externalInfillAngles,45,-45
;   generateSupport,0
;   supportExtruder,0
;   supportInfillPercentage,30
;   supportExtraInflation,0
;   supportBaseLayers,0
;   denseSupportExtruder,0
;   denseSupportLayers,0
;   denseSupportInfillPercentage,70
;   supportLayerInterval,1
;   supportHorizontalPartOffset,0.4
;   supportUpperSeparationLayers,1
;   supportLowerSeparationLayers,1
;   supportType,0
;   supportGridSpacing,4.5
;   maxOverhangAngle,45
;   supportAngles,0
;   temperatureName,Primary Extruder,Heated Bed
;   temperatureNumber,0,0
;   temperatureSetpointCount,2,1
;   temperatureSetpointLayers,1,2,1
;   temperatureSetpointTemperatures,215,210,60
;   temperatureStabilizeAtStartup,1,1
;   temperatureHeatedBed,0,1
;   fanLayers,1,2
;   fanSpeeds,0,100
;   blipFanToFullPower,0
;   adjustSpeedForCooling,1
;   minSpeedLayerTime,15
;   minCoolingSpeedSlowdown,50
;   increaseFanForCooling,1
;   minFanLayerTime,25
;   maxCoolingFanSpeed,100
;   increaseFanForBridging,1
;   bridgingFanSpeed,100
;   use5D,1
;   relativeEdistances,0
;   allowEaxisZeroing,1
;   independentExtruderAxes,0
;   includeM10123,0
;   stickySupport,1
;   applyToolheadOffsets,0
;   gcodeXoffset,0
;   gcodeYoffset,0
;   gcodeZoffset,0
;   overrideMachineDefinition,1
;   machineTypeOverride,0
;   strokeXoverride,300
;   strokeYoverride,300
;   strokeZoverride,400
;   originOffsetXoverride,0
;   originOffsetYoverride,0
;   originOffsetZoverride,0
;   homeXdirOverride,-1
;   homeYdirOverride,-1
;   homeZdirOverride,-1
;   flipXoverride,1
;   flipYoverride,-1
;   flipZoverride,1
;   toolheadOffsets,0,0|0,0|0,0|0,0|0,0|0,0
;   overrideFirmwareConfiguration,1
;   firmwareTypeOverride,RepRap (Marlin/Repetier/Sprinter)
;   GPXconfigOverride,r2
;   baudRateOverride,250000
;   overridePrinterModels,1
;   printerModelsOverride
;   startingGcode,;,; -]H.P.B[- MarshMalloW  ,; $VER: StartScript 1.01 (13.11.2019) MarshMalloW,;,; Begin Startcode,;,M117 *Start Clean*     	; Indicate nozzle clean in progress on LCD,;,;extruder0_temperature,M104 S[extruder0_temperature]  ,M109 S[extruder0_temperature] ,M109 R[extruder0_temperature] ,;,M107                   	; Turn layer fan off,G21                    	; Set to metric [change to G20 if you want Imperial],G90                    	; Force coordinates to be absolute relative to the origin,G28                    	; Home X/Y/Z axis,G29                    	; Auto-leveling (BL-Touch),;,G92 E0                 	; Set Extruder to 0 ,G1 X0 Y0 F2000         	; Move X and Y to 0 with speed 2000 (mm/min),G1 Z0.1 F1000          	; Move Z to   0.1 with speed 1000 (mm/min),G1 X8.0 F2000          	; Move X to   8.0 with speed 2000 (mm/min),G1 Y60.0 E4.0 F1000.0  	; Move Y to  60 and Extruder with 4.0 with speed 1000 (mm/min),G1 Y100.0 E8.5 F1000.0 	; Move Y to 100 and Extruder with 8.5 with speed 1000 (mm/min),G92 E0                 	; Set extruder to 0,G1 X16.0 F3000         	; Move X to 16.0 with speed 3000 (mm/min),G1 Y60.0 F3000         	; Move Y to 60.0 with speed 3000 (mm/min),M117 *End Clean*       	; Indicate nozzle clean in progress on LCD,G1 Z5 F3000            	; Move Z to  5.0 with speed 3000 (mm/min),G1 X20.0 F3000         	; Move X to 20.0 with speed 3000 (mm/min),; ,M117 *Printing...*     	; Start printing msg on LCD,;,; End Startcode,;,; Begin printing with sliced GCode after here,;
;   layerChangeGcode,
;   retractionGcode,
;   toolChangeGcode,
;   endingGcode,;,; init 181010,;,;M107 			; Fan off,;G1 E-1 F300 			; Retract the filament a bit before lifting the nozzle,;M104 S0 			; Turn off extruder,;M140 S0 			; Turn off bed,;G91			; Relative positioning,;G28 X0 Y0 			; Move X/Y to min endstops so the head is out of teh way,;M84 			; Disable motors,;G90 			; Absolute positioning,;M117 Print ready...,,;,; // From Cura 181010,; // End_gcode,G92 E0			; Zero the extruded length,;G1 E-30 F300		; Retract E -30,M106 S0			; Turn off cooling fan,M104 S0			; Turn off temperature,M140 S0		     	; Turn off bed,G91			; Relative positioning,G1 E-1 F300			; Retract the filament a bit before lifting the nozzle to release some of the pressure,G1 Z+20 E-5 X-20 Y-20 F7200	; Move Z up a bit and retract filament even more,G1 X0 Y150 F10000		; Move right min,M107			; Turn off layer fan,M84			; Disable motors,G90			; Absolute positioning,M117 *The-End* 		; End msg,;,
;   exportFileFormat,gcode
;   celebration,0
;   celebrationSong,Star Wars
;   postProcessing,
;   defaultSpeed,1800
;   outlineUnderspeed,0.5
;   solidInfillUnderspeed,0.8
;   supportUnderspeed,0.8
;   rapidXYspeed,6000
;   rapidZspeed,1002
;   minBridgingArea,50
;   bridgingExtraInflation,0.2
;   bridgingExtrusionMultiplier,1
;   bridgingSpeedMultiplier,0.6
;   useFixedBridgingAngle,0
;   fixedBridgingAngle,0
;   applyBridgingToPerimeters,0
;   filamentDiameters,1.75|1.75|1.75|1.75|1.75|1.75
;   filamentPricesPerKg,30|46|46|46|46|46
;   filamentDensities,1.25|1.25|1.25|1.25|1.25|1.25
;   useMinPrintHeight,0
;   minPrintHeight,0
;   useMaxPrintHeight,0
;   maxPrintHeight,9
;   useDiaphragm,0
;   diaphragmLayerInterval,20
;   robustSlicing,1
;   mergeAllIntoSolid,0
;   onlyRetractWhenCrossingOutline,1
;   retractBetweenLayers,1
;   useRetractionMinTravel,1
;   retractionMinTravel,3
;   retractWhileWiping,1
;   onlyWipeOutlines,1
;   avoidCrossingOutline,1
;   maxMovementDetourFactor,3
;   toolChangeRetractionDistance,12
;   toolChangeExtraRestartDistance,-0.5
;   toolChangeRetractionSpeed,600
;   externalThinWallType,1
;   internalThinWallType,1
;   thinWallAllowedOverlapPercentage,15
;   singleExtrusionMinLength,1
;   singleExtrusionMinPrintingWidthPercentage,50
;   singleExtrusionMaxPrintingWidthPercentage,200
;   singleExtrusionEndpointExtension,0.2
;   horizontalSizeCompensation,0
G90
M82
M106 S94
M140 S60
M190 S60
;
; -]H.P.B[- MarshMalloW  
; $VER: StartScript 1.01 (13.11.2019) MarshMalloW
;
; Begin Startcode
;
M117 *Start Clean*     	; Indicate nozzle clean in progress on LCD
;
;extruder0_temperature
M104 S215  
M109 S215 
M109 R215 
;
M107                   	; Turn layer fan off
G21                    	; Set to metric [change to G20 if you want Imperial]
G90                    	; Force coordinates to be absolute relative to the origin
G28                    	; Home X/Y/Z axis
G29                    	; Auto-leveling (BL-Touch)
;
G92 E0                 	; Set Extruder to 0 
G1 X0 Y0 F2000         	; Move X and Y to 0 with speed 2000 (mm/min)
G1 Z0.1 F1000          	; Move Z to   0.1 with speed 1000 (mm/min)
G1 X8.0 F2000          	; Move X to   8.0 with speed 2000 (mm/min)
G1 Y60.0 E4.0 F1000.0  	; Move Y to  60 and Extruder with 4.0 with speed 1000 (mm/min)
G1 Y100.0 E8.5 F1000.0 	; Move Y to 100 and Extruder with 8.5 with speed 1000 (mm/min)
G92 E0                 	; Set extruder to 0
G1 X16.0 F3000         	; Move X to 16.0 with speed 3000 (mm/min)
G1 Y60.0 F3000         	; Move Y to 60.0 with speed 3000 (mm/min)
M117 *End Clean*       	; Indicate nozzle clean in progress on LCD
G1 Z5 F3000            	; Move Z to  5.0 with speed 3000 (mm/min)
G1 X20.0 F3000         	; Move X to 20.0 with speed 3000 (mm/min)
; 
M117 *Printing...*     	; Start printing msg on LCD
;
; End Startcode
;
; Begin printing with sliced GCode after here
;
; process Process1
; layer 1, Z = 0.180
T0
G92 E0.0000
G1 E-3.8000 F3000
; feature skirt
; tool H0.180 W0.350
G1 Z0.300 F1002
G1 X152.875 Y144.809 F6000
G1 Z0.180 F1002
G1 E0.0000 F3000
G92 E0.0000
G1 X152.875 Y155.191 E0.2583 F900
G1 X151.191 Y156.875 E0.3176
G1 X140.809 Y156.875 E0.5759
G1 X139.125 Y155.191 E0.6352
G1 X139.125 Y144.809 E0.8935
G1 X140.809 Y143.125 E0.9528
G1 X151.191 Y143.125 E1.2111
G1 X152.875 Y144.809 E1.2704
G92 E0.0000
G1 E-3.8000 F3000
G1 Z0.480 F1002
G1 X149.825 Y146.175 F6000
G1 X149.825 Y147.139
G1 X147.175 Y149.164
G1 X147.175 Y151.175
G1 X144.825 Y151.175
G1 X144.825 Y150.959
G1 X142.175 Y152.983
G1 X142.175 Y153.825
G1 X139.475 Y155.046
G1 Z0.180 F1002
G1 E0.0000 F3000
G92 E0.0000
G1 X139.475 Y144.954 E0.2511 F900
G1 X140.954 Y143.475 E0.3032
G1 X151.046 Y143.475 E0.5543
G1 X152.525 Y144.954 E0.6063
G1 X152.525 Y155.046 E0.8574
G1 X151.046 Y156.525 E0.9095
G1 X140.954 Y156.525 E1.1606
G1 X139.475 Y155.046 E1.2126
G92 E0.0000
G1 E-3.8000 F3000
G1 Z0.480 F1002
G1 X152.175 Y154.901 F6000
G1 Z0.180 F1002
G1 E0.0000 F3000
G92 E0.0000
G1 X150.901 Y156.175 E0.0448 F900
G1 X141.099 Y156.175 E0.2887
G1 X139.825 Y154.901 E0.3336
G1 X139.825 Y145.099 E0.5775
G1 X141.099 Y143.825 E0.6223
G1 X150.901 Y143.825 E0.8662
G1 X152.175 Y145.099 E0.9110
G1 X152.175 Y154.901 E1.1549
G92 E0.0000
G1 E-3.8000 F3000
; feature outer perimeter
G1 Z0.480 F1002
G1 X149.825 Y146.175 F6000
G1 Z0.180 F1002
G1 E0.0000 F3000
G92 E0.0000
G1 X149.825 Y153.825 E0.1904 F450
G1 X142.175 Y153.825 E0.3807
G1 X142.175 Y146.175 E0.5711
G1 X149.825 Y146.175 E0.7614
; feature inner perimeter
G1 X149.475 Y146.525 F6000
G92 E0.0000
G1 X149.475 Y153.475 E0.1729 F675
G1 X142.525 Y153.475 E0.3459
G1 X142.525 Y146.525 E0.5188
G1 X149.475 Y146.525 E0.6917
G1 X149.125 Y146.875 F6000
G92 E0.0000
G1 X149.125 Y153.125 E0.1555 F675
G1 X142.875 Y153.125 E0.3110
G1 X142.875 Y146.875 E0.4666
G1 X149.125 Y146.875 E0.6221
; feature outer perimeter
G1 X147.175 Y148.825 F6000
G92 E0.0000
G1 X144.825 Y148.825 E0.0585 F450
G1 X144.825 Y151.175 E0.1169
G1 X147.175 Y151.175 E0.1754
G1 X147.175 Y148.825 E0.2339
; feature inner perimeter
G1 X147.525 Y148.475 F6000
G92 E0.0000
G1 X144.475 Y148.475 E0.0759 F675
G1 X144.475 Y151.525 E0.1518
G1 X147.525 Y151.525 E0.2277
G1 X147.525 Y148.475 E0.3036
G1 X147.875 Y148.125 F6000
G92 E0.0000
G1 X144.125 Y148.125 E0.0933 F675
G1 X144.125 Y151.875 E0.1866
G1 X147.875 Y151.875 E0.2799
G1 X147.875 Y148.125 E0.3732
; feature solid layer
G1 X148.827 Y147.173 F6000
G92 E0.0000
G1 X148.827 Y152.827 E0.1407 F720
G1 X143.173 Y152.827 E0.2814
G1 X143.173 Y147.173 E0.4221
G1 X148.827 Y147.173 E0.5628
G1 X148.173 Y147.827 F6000
G92 E0.0000
G1 X143.827 Y147.827 E0.1081 F720
G1 X143.827 Y152.173 E0.2162
G1 X148.173 Y152.173 E0.3243
G1 X148.173 Y147.827 E0.4325
G92 E0.0000
G1 E-3.8000 F3000
; layer 2, Z = 0.330
M106 S255
M104 S210 T0
; feature outer perimeter
; tool H0.150 W0.350
G1 Z0.480 F1002
G1 X142.175 Y146.175 F6000
G1 Z0.330 F1002
G1 E0.0000 F3000
G92 E0.0000
G1 X149.825 Y146.175 E0.1586 F473
G1 X149.825 Y153.825 E0.3173
G1 X142.175 Y153.825 E0.4759
G1 X142.175 Y146.175 E0.6345
; feature inner perimeter
G1 X142.525 Y146.525 F6000
G92 E0.0000
G1 X149.475 Y146.525 E0.1441 F710
G1 X149.475 Y153.475 E0.2882
G1 X142.525 Y153.475 E0.4323
G1 X142.525 Y146.525 E0.5765
G1 X142.875 Y146.875 F6000
G92 E0.0000
G1 X149.125 Y146.875 E0.1296 F710
G1 X149.125 Y153.125 E0.2592
G1 X142.875 Y153.125 E0.3888
G1 X142.875 Y146.875 E0.5184
; feature outer perimeter
G1 X144.825 Y148.825 F6000
G92 E0.0000
G1 X144.825 Y151.175 E0.0487 F473
G1 X147.175 Y151.175 E0.0975
G1 X147.175 Y148.825 E0.1462
G1 X144.825 Y148.825 E0.1949
; feature inner perimeter
G1 X144.475 Y148.475 F6000
G92 E0.0000
G1 X144.475 Y151.525 E0.0632 F710
G1 X147.525 Y151.525 E0.1265
G1 X147.525 Y148.475 E0.1897
G1 X144.475 Y148.475 E0.2530
G1 X144.125 Y148.125 F6000
G92 E0.0000
G1 X144.125 Y151.875 E0.0778 F710
G1 X147.875 Y151.875 E0.1555
G1 X147.875 Y148.125 E0.2333
G1 X144.125 Y148.125 E0.3110
; feature solid layer
G1 X143.173 Y147.173 F6000
G92 E0.0000
G1 X148.827 Y147.173 E0.1173 F757
G1 X148.827 Y152.827 E0.2345
G1 X143.173 Y152.827 E0.3518
G1 X143.173 Y147.173 E0.4690
G1 X143.827 Y147.827 F6000
G92 E0.0000
G1 X143.827 Y152.173 E0.0901 F757
G1 X148.173 Y152.173 E0.1802
G1 X148.173 Y147.827 E0.2703
G1 X143.827 Y147.827 E0.3604
G92 E0.0000
G1 E-3.8000 F3000
; layer 3, Z = 0.480
; feature outer perimeter
G1 Z0.630 F1002
G1 X142.175 Y153.825 F6000
G1 Z0.480 F1002
G1 E0.0000 F3000
G92 E0.0000
G1 X142.175 Y146.175 E0.1586 F473
G1 X149.825 Y146.175 E0.3173
G1 X149.825 Y153.825 E0.4759
G1 X142.175 Y153.825 E0.6345
; feature inner perimeter
G1 X142.525 Y153.475 F6000
G92 E0.0000
G1 X142.525 Y146.525 E0.1441 F710
G1 X149.475 Y146.525 E0.2882
G1 X149.475 Y153.475 E0.4323
G1 X142.525 Y153.475 E0.5765
G1 X142.875 Y153.125 F6000
G92 E0.0000
G1 X142.875 Y146.875 E0.1296 F710
G1 X149.125 Y146.875 E0.2592
G1 X149.125 Y153.125 E0.3888
G1 X142.875 Y153.125 E0.5184
; feature outer perimeter
G1 X144.825 Y151.175 F6000
G92 E0.0000
G1 X147.175 Y151.175 E0.0487 F473
G1 X147.175 Y148.825 E0.0975
G1 X144.825 Y148.825 E0.1462
G1 X144.825 Y151.175 E0.1949
; feature inner perimeter
G1 X144.475 Y151.525 F6000
G92 E0.0000
G1 X147.525 Y151.525 E0.0632 F710
G1 X147.525 Y148.475 E0.1265
G1 X144.475 Y148.475 E0.1897
G1 X144.475 Y151.525 E0.2530
G1 X144.125 Y151.875 F6000
G92 E0.0000
G1 X147.875 Y151.875 E0.0778 F710
G1 X147.875 Y148.125 E0.1555
G1 X144.125 Y148.125 E0.2333
G1 X144.125 Y151.875 E0.3110
; feature solid layer
G1 X143.173 Y152.827 F6000
G92 E0.0000
G1 X143.173 Y147.173 E0.1173 F757
G1 X148.827 Y147.173 E0.2345
G1 X148.827 Y152.827 E0.3518
G1 X143.173 Y152.827 E0.4690
G1 X143.827 Y152.173 F6000
G92 E0.0000
G1 X148.173 Y152.173 E0.0901 F757
G1 X148.173 Y147.827 E0.1802
G1 X143.827 Y147.827 E0.2703
G1 X143.827 Y152.173 E0.3604
G92 E0.0000
G1 E-3.8000 F3000
; layer 4, Z = 0.630
; feature outer perimeter
G1 Z0.780 F1002
G1 X142.175 Y153.825 F6000
G1 Z0.630 F1002
G1 E0.0000 F3000
G92 E0.0000
G1 X142.175 Y146.175 E0.1586 F453
G1 X149.825 Y146.175 E0.3173
G1 X149.825 Y153.825 E0.4759
G1 X142.175 Y153.825 E0.6345
; feature inner perimeter
G1 X142.525 Y153.475 F6000
G92 E0.0000
G1 X142.525 Y146.525 E0.1441 F679
G1 X149.475 Y146.525 E0.2882
G1 X149.475 Y153.475 E0.4323
G1 X142.525 Y153.475 E0.5765
G1 X142.875 Y153.125 F6000
G92 E0.0000
G1 X142.875 Y146.875 E0.1296 F679
G1 X149.125 Y146.875 E0.2592
G1 X149.125 Y153.125 E0.3888
G1 X142.875 Y153.125 E0.5184
; feature outer perimeter
G1 X144.825 Y151.175 F6000
G92 E0.0000
G1 X147.175 Y151.175 E0.0487 F453
G1 X147.175 Y148.825 E0.0975
G1 X144.825 Y148.825 E0.1462
G1 X144.825 Y151.175 E0.1949
; feature inner perimeter
G1 X144.475 Y151.525 F6000
G92 E0.0000
G1 X147.525 Y151.525 E0.0632 F679
